public/images/icon-people--clay.svg

<svg width="16" height="16" viewBox="0 0 16 16" fill="none" xmlns="http://www.w3.org/2000/svg">
<path d="M4 4C2.90625 4 2 3.09375 2 2C2 0.90625 2.90625 0 4 0C5.09375 0 6 0.90625 6 2C6 3.09375 5.09375 4 4 4ZM8 12H6V16H2V12H0L2 5H6L8 12ZM8 12L10 5H14L16 12H14V16H10V12H8ZM12 4C10.9062 4 10 3.09375 10 2C10 0.90625 10.9062 0 12 0C13.0938 0 14 0.90625 14 2C14 3.09375 13.0938 4 12 4Z" fill="#9F7749"/>
</svg>

<svg width="16" height="16" viewBox="0 0 16 16" fill="none" xmlns="http://www.w3.org/2000/svg"><path d="M4 4c-1.094 0-2-.906-2-2 0-1.094.906-2 2-2 1.094 0 2 .906 2 2 0 1.094-.906 2-2 2Zm4 8H6v4H2v-4H0l2-7h4l2 7Zm0 0 2-7h4l2 7h-2v4h-4v-4H8Zm4-8c-1.094 0-2-.906-2-2 0-1.094.906-2 2-2 1.094 0 2 .906 2 2 0 1.094-.906 2-2 2Z" fill="#9F7749"/></svg>
